X: 1731
T: Spellan the Fiddler   #2
R: hornpipe, reel
%S: s:3 b:14(4+5+5)
B: O'Neill's 1850 #1731
O: J.O'Neill
Z: Bob Safranek, rjs@gsp.org
Z: A.LEE WORMAN
M: C|
L: 1/8
K: G
"^A"[|] ((3DEF) |: G>DB>G d>Bg>d | b>g (3ded c>BA>G |[1,3 .F(d^cd) .A(dcd) | d>ce>d c>AF>D :|
|[2,4 f>ec>A e>dB>G | (3FGA (3DEF G2 "^B":: g2 | b>gd>B G>Bd>g | a>fc>A F>Ac>f | a>gb>a c'>ba>g |
| f>ed>c B>AG>F || G>Dc>G d>Bg>d | b>g (3ded c>BA>G | f>ec>A e>dB>G | (3FGA (3DEF G2 :|
